X:1
T:Methven Castle [1]
T:Methven Castle [1]
T:Alexander Walker
C:Alexander Walker
L:1/8
M:2/2
K:A
V:1 treble 
V:1
 A | A,/A,/A, EC EA,A,C | B,CDE F2 FA | A,/A,/A, EC EFAd | ceBe cAA :| e | cAeA dBbc | %7
 dBcA BB,B,D | CA,DC DB,BA | GBEG AA,A,e | cAec dBbc | dfec dBBd | cedf eafd | cAAG AA,A, || %14

